src/status/24/notification-new-30-symbolic.svg

<?xml version="1.0" encoding="UTF-8" standalone="no"?>
<svg
   xmlns:dc="http://purl.org/dc/elements/1.1/"
   xmlns:cc="http://creativecommons.org/ns#"
   xmlns:rdf="http://www.w3.org/1999/02/22-rdf-syntax-ns#"
   xmlns:svg="http://www.w3.org/2000/svg"
   xmlns="http://www.w3.org/2000/svg"
   id="svg8"
   version="1.1"
   width="24"
   height="24">
  <metadata
     id="metadata14">
    <rdf:RDF>
      <cc:Work
         rdf:about="">
        <dc:format>image/svg+xml</dc:format>
        <dc:type
           rdf:resource="http://purl.org/dc/dcmitype/StillImage" />
        <dc:title />
      </cc:Work>
    </rdf:RDF>
  </metadata>
  <defs
     id="defs12" />
  <path
     id="path2-3-5-2-2-5-19"
     d="M 13.490234 5.0097656 C 13.100544 5.0126677 12.730778 5.2442701 12.572266 5.6269531 L 12.568359 5.6347656 C 10.764109 5.3809999 8.9686313 6.491285 8.2695312 8.1738281 C 8.2695312 8.1738281 6.3572175 12.793948 4.5859375 12.732422 C 4.5669375 12.736422 4.55155 12.751279 4.53125 12.755859 C 4.45415 12.777379 4.3823863 12.812071 4.3164062 12.857422 C 4.2894062 12.875482 4.2618812 12.88574 4.2382812 12.90625 C 4.1484812 12.9805 4.07761 13.076631 4.03125 13.183594 C 3.87206 13.567928 4.0541 14.003296 4.4375 14.162109 L 14.136719 18.181641 C 14.521059 18.340838 14.957987 18.159728 15.117188 17.775391 C 15.159987 17.363636936 15.177016 17.549628 15.166016 17.433594 C 15.164016 17.402364 15.152284 17.37427 15.146484 17.34375 C 15.131684 17.26484 15.104153 17.188943 15.064453 17.119141 C 15.054253 17.101931 15.054469 17.081113 15.042969 17.064453 C 13.746589 15.856393 15.662109 11.236328 15.662109 11.236328 C 16.357889 9.5513308 15.872536 7.4961921 14.416016 6.4003906 L 14.419922 6.3925781 C 14.631272 5.8823335 14.389106 5.2972859 13.878906 5.0859375 C 13.751346 5.0331004 13.620131 5.0087983 13.490234 5.0097656 z M 7.1191406 16.355469 C 6.9907506 17.257599 7.4887781 18.132367 8.3300781 18.482422 C 9.1729481 18.830196 10.144346 18.563442 10.691406 17.833984 L 7.1191406 16.355469 z "
     style="color:#bebebe;overflow:visible;isolation:auto;mix-blend-mode:normal;fill:#363636;marker:none" />
</svg>

<svg xmlns="http://www.w3.org/2000/svg" width="24" height="24">
    <path d="M13.49 5.01c-.39.003-.76.234-.918.617l-.004.008c-1.804-.254-3.6.856-4.298 2.539 0 0-1.913 4.62-3.684 4.558-.02.004-.034.02-.055.024a.72.72 0 0 0-.215.101c-.027.018-.054.029-.078.05a.744.744 0 0 0-.207.277c-.159.384.023.82.407.978l9.699 4.02a.748.748 0 0 0 .98-.407c.043-.411.06-.225.049-.341-.002-.032-.014-.06-.02-.09a.724.724 0 0 0-.082-.225c-.01-.017-.01-.038-.021-.055-1.296-1.208.62-5.828.62-5.828.695-1.685.21-3.74-1.247-4.836l.004-.007a1 1 0 0 0-.93-1.383zM7.12 16.355a1.999 1.999 0 0 0 1.21 2.127 1.999 1.999 0 0 0 2.361-.648L7.12 16.355z" style="color:#bebebe;overflow:visible;isolation:auto;mix-blend-mode:normal;fill:#050505;opacity:.7;marker:none"/>
</svg>
